dist/images/icons/mark.svg

<svg width="13" height="16" viewBox="0 0 13 16" fill="none" xmlns="http://www.w3.org/2000/svg">
<path d="M12.2892 3.35158C11.245 1.28 9.15657 0 6.83235 0C5.87235 0 4.96288 0.218952 4.10393 0.656846C2.65551 1.38106 1.59446 2.64421 1.07235 4.21053C0.567089 5.76 0.684988 7.44421 1.39236 8.84211C2.18394 10.4084 5.78815 14.7537 6.19236 15.2421L6.83235 16L7.45551 15.2253C7.62394 15.0232 11.3966 10.4253 12.2555 8.85894C13.1987 7.17473 13.1987 5.17053 12.2892 3.35158ZM11.5481 8.47158C10.7229 9.98737 6.83235 14.72 6.83235 14.72C6.83235 14.72 2.90815 10.0042 2.13341 8.47158C0.853413 5.97895 1.86393 2.69473 4.47446 1.39789C5.23236 1.01052 6.04078 0.842105 6.83235 0.842105C8.7692 0.842105 10.6218 1.90316 11.5481 3.73895C12.3229 5.27158 12.3566 6.98947 11.5481 8.47158Z" fill="#989898"/>
<path d="M6.84863 3.35205C5.33284 3.35205 4.10336 4.58152 4.10336 6.09731C4.10336 7.6131 5.33284 8.84257 6.84863 8.84257C8.36442 8.84257 9.5939 7.6131 9.5939 6.09731C9.5939 4.58152 8.36442 3.35205 6.84863 3.35205ZM6.84863 8.01731C5.78758 8.01731 4.92863 7.15836 4.92863 6.09731C4.92863 5.03626 5.78758 4.17731 6.84863 4.17731C7.90969 4.17731 8.76863 5.03626 8.76863 6.09731C8.76863 7.15836 7.90969 8.01731 6.84863 8.01731Z" fill="#989898"/>
</svg>

<svg width="13" height="16" fill="none" xmlns="http://www.w3.org/2000/svg"><path d="M12.29 3.352A6.07 6.07 0 006.831 0c-.96 0-1.87.219-2.728.657-1.448.724-2.51 1.987-3.032 3.554-.505 1.549-.387 3.233.32 4.631.792 1.566 4.396 5.912 4.8 6.4l.64.758.624-.775c.168-.202 3.94-4.8 4.8-6.366.943-1.684.943-3.688.033-5.507zm-.742 5.12c-.825 1.515-4.716 6.248-4.716 6.248s-3.924-4.716-4.699-6.248c-1.28-2.493-.27-5.777 2.341-7.074A5.155 5.155 0 016.832.842a5.27 5.27 0 014.716 2.897c.775 1.533.809 3.25 0 4.733z" fill="#989898"/><path d="M6.849 3.352a2.746 2.746 0 100 5.492 2.746 2.746 0 000-5.492zm0 4.665a1.92 1.92 0 110-3.84 1.92 1.92 0 110 3.84z" fill="#989898"/></svg>
